X: 1
T: Auld Grey Cat, The
T: Old Grey Cat, The
C: Trad
R: Reel
M: 4/4
L: 1/8
K: Edor
Z: ABC transcription by Verge Roller
r: 32
|: ^d2 | "Em" e2 e2 E3 F | "Em" GFGA BABc | "D" d2 d2 D3 E | "D" FAdB AFED |
"Em" e2 e2 E3 F | "Em" GFGA BABc | "D" dc BA BAGF | "Em" E4 e z :|
|: A2 | "Em" B2 e2 e3 d | "Em" Bdef gfed | "D" A2 d2 d3 B | "D" ABde fedf |
"Em" e2 B2 "G" g2 B2 | "B7" a2 B2 "Em" b3 a | "Em" gfed "D" BABd | "Em" e4 e2 :|
